X:41
T:Waltz. WHG.040
T:Oh,My Lovely Augustine,aka. WHG.040
R:waltz
S:W.H.Giles MS,Bampton,Oxfordshire,1839p37
O:England
H:donated by Mrs W.R.Kettlewell to VWML,Apr 1927.
N:Could possibly be part of the previous tune WHG037?.
N:Repeats uncertain.
A:Bampton, Oxfordshire
Z:PJHeadford – VMP 2009
M:3/4
L:1/8
Q:1/4=180
K:C
g2 gagf|e2c2c2|d2G2G2|e2c2c2|\
g2 (ga)gf|e2c2c2|d2G2G2|c6:|
|:d2G2G2|e2c2c2|d2G2G2|e2c2e2|\
g2 gagf|e2c2c2|d2G2B2|c6|]

